src/assets/icons/edit.svg

<svg width="36" height="36" viewBox="0 0 36 36" fill="none" xmlns="http://www.w3.org/2000/svg">
<path fill-rule="evenodd" clip-rule="evenodd" d="M6.43884 26.5282C6.12384 26.2132 5.96634 25.7752 6.00534 25.3312L6.57384 19.0762C6.63684 18.3907 6.93984 17.7442 7.42884 17.2552L20.9228 3.76125C21.9758 2.70375 23.8853 2.75625 24.9968 3.86475L29.1038 7.97175L29.1053 7.97325C30.2528 9.12225 30.2993 10.9492 29.2073 12.0442L15.7118 25.5397C15.2243 26.0272 14.5778 26.3302 13.8908 26.3932L7.63584 26.9617C7.59084 26.9647 7.54584 26.9662 7.49934 26.9662C7.10484 26.9662 6.72234 26.8102 6.43884 26.5282ZM24.0279 12.9847L19.9854 8.94225L22.9074 6.01875L26.9484 10.0597L24.0279 12.9847ZM13.6194 23.4037L9.15389 23.8102L9.54989 19.3762L17.9754 10.9507L22.0194 14.9962L13.6194 23.4037ZM28.4994 32.9662C29.3244 32.9662 29.9994 32.2912 29.9994 31.4662C29.9994 30.6427 29.3244 29.9662 28.4994 29.9662H7.49939C6.67589 29.9662 5.99939 30.6427 5.99939 31.4662C5.99939 32.2912 6.67589 32.9662 7.49939 32.9662H28.4994Z" fill="white"/>
</svg>

<svg xmlns="http://www.w3.org/2000/svg" width="36" height="36" fill="none"><path fill="#fff" fill-rule="evenodd" d="M6.439 26.528a1.505 1.505 0 0 1-.434-1.197l.569-6.255a2.964 2.964 0 0 1 .855-1.82L20.923 3.76c1.053-1.057 2.962-1.005 4.074.104l4.107 4.107.001.001c1.148 1.15 1.194 2.976.102 4.071L15.712 25.54a2.962 2.962 0 0 1-1.821.853l-6.255.569a1.505 1.505 0 0 1-1.197-.434Zm17.589-13.543-4.043-4.043 2.922-2.923 4.041 4.04-2.92 2.926ZM13.619 23.404l-4.465.406.396-4.434 8.425-8.425 4.044 4.045-8.4 8.408Zm14.88 9.562c.825 0 1.5-.675 1.5-1.5 0-.823-.675-1.5-1.5-1.5h-21c-.823 0-1.5.677-1.5 1.5 0 .825.677 1.5 1.5 1.5h21Z" clip-rule="evenodd"/></svg>
